outputs/icons/navigation/chevron_right_round.svg

<svg xmlns="http://www.w3.org/2000/svg" width="1200" height="1200" fill="none"><g clip-path="url(#a)"><path fill="#000" d="M464.503 335.501c-19.5 19.5-19.5 51 0 70.5L658.505 600 464.503 794c-19.5 19.5-19.5 51 0 70.5s51.002 19.5 70.502 0l229.5-229.5c19.5-19.5 19.5-51 0-70.5l-229.5-229.499c-19-19-51.002-19-70.502.5"/></g><defs><clipPath id="a"><path fill="#fff" d="M0 0h1200v1200H0z"/></clipPath></defs></svg>

<svg width="1200" height="1200" viewBox="0 0 1200 1200" fill="none" xmlns="http://www.w3.org/2000/svg"><g clip-path="url(#clip0_225_2890)"><path d="M464.503 335.501C445.003 355.001 445.003 386.501 464.503 406.001L658.505 600L464.503 794C445.003 813.5 445.003 845 464.503 864.5C484.003 884 515.505 884 535.005 864.5L764.505 635C784.005 615.5 784.005 584 764.505 564.5L535.005 335.001C516.005 316.001 484.003 316.001 464.503 335.501Z" fill="black"/></g><defs><clipPath id="clip0_225_2890"><path width="24" fill="white" d="M0 0H1200V1200H0V0z"/></clipPath></defs></svg>
